icons/1_Primary/Joomla.svg

<svg xmlns="http://www.w3.org/2000/svg" width="1024" height="1024" fill="none">
   <g clip-path="url(#a)">
      <path fill="#728DBE" d="M512 1024c282.77 0 512-229.23 512-512S794.77 0 512 0 0 229.23 0 512s229.23 512 512 512Z"/>
      <path fill="#fff" d="m599.61 563.22-46.39 46.43-44 44-8.58 8.65a98.86 98.86 0 0 1-93.7 25.94 59.619 59.619 0 1 1-99.386-56.37 59.62 59.62 0 0 1 27.506-14.99A98.674 98.674 0 0 1 361 522.56l3.32-3.34 44 44-3.42 3.36a36.652 36.652 0 0 0 0 51.78 36.248 36.248 0 0 0 25.87 10.861 36.238 36.238 0 0 0 25.87-10.861l8.63-8.63 43.94-44 46.45-46.52 43.95 44.01Zm17.15 123.5a98.742 98.742 0 0 1-98.92-24.47l-3.34-3.43 43.91-44 3.34 3.42a36.508 36.508 0 0 0 11.846 7.921 36.506 36.506 0 0 0 27.953.011 36.509 36.509 0 0 0 19.773-19.758 36.524 36.524 0 0 0-7.902-39.804l-8.65-8.61-43.91-44-46.45-46.47 44-44 46.4 46.47 43.94 44 8.61 8.61a98 98 0 0 1 26.2 93.22 59.6 59.6 0 1 1-66.56 71l-.24-.11ZM418.71 464.86l46.56-46.51 44-44 8.58-8.56A98.297 98.297 0 0 1 615.59 341a59.593 59.593 0 0 1 72.775-49.852 59.594 59.594 0 0 1 42.661 77.209 59.585 59.585 0 0 1-48.606 39.853 98.573 98.573 0 0 1-25.06 97.17l-3.36 3.43-44-44 3.42-3.42a36.496 36.496 0 0 0 7.905-39.78 36.503 36.503 0 0 0-59.535-11.83l-8.58 8.56-44 44-46.51 46.45-43.99-43.93ZM369.46 514l-8.56-8.58a98.652 98.652 0 0 1-24.73-98.17 59.624 59.624 0 0 1-44.309-42.48 59.629 59.629 0 0 1 .148-31.848 59.628 59.628 0 0 1 44.703-42.065 59.618 59.618 0 0 1 71.508 48.593 98.775 98.775 0 0 1 92.44 26.27l3.42 3.43-44 44-3.4-3.36a36.626 36.626 0 0 0-51.539.26 36.628 36.628 0 0 0-.261 51.54l8.63 8.65 44 44L504 560.73l-43.94 44-46.6-46.51-44-44V514Z"/>
   </g>
   <defs>
      <clipPath id="a">
         <path fill="#fff" d="M0 0h1024v1024H0z"/>
      </clipPath>
   </defs>
</svg>

<svg width="1024" height="1024" viewBox="0 0 1024 1024" fill="none" xmlns="http://www.w3.org/2000/svg">
<g clip-path="url(#clip0_2_2565)">
<path d="M512 1024C794.77 1024 1024 794.77 1024 512C1024 229.23 794.77 0 512 0C229.23 0 0 229.23 0 512C0 794.77 229.23 1024 512 1024Z" fill="#728DBE"/>
<path d="M599.61 563.22L553.22 609.65L509.22 653.65L500.64 662.3C488.58 674.33 473.616 683.04 457.199 687.584C440.783 692.129 423.47 692.355 406.94 688.24C404.56 698.599 399.453 708.133 392.15 715.855C384.846 723.577 375.611 729.206 365.401 732.159C355.191 735.112 344.377 735.283 334.079 732.652C323.781 730.021 314.373 724.686 306.83 717.197C299.288 709.709 293.884 700.34 291.178 690.062C288.473 679.783 288.565 668.968 291.444 658.737C294.323 648.505 299.885 639.23 307.554 631.87C315.222 624.511 324.719 619.336 335.06 616.88C330.812 600.26 330.97 582.819 335.519 566.279C340.068 549.739 348.85 534.67 361 522.56L364.32 519.22L408.32 563.22L404.9 566.58C398.043 573.451 394.191 582.762 394.191 592.47C394.191 602.178 398.043 611.489 404.9 618.36C408.274 621.799 412.3 624.531 416.742 626.396C421.183 628.261 425.953 629.221 430.77 629.221C435.588 629.221 440.357 628.261 444.799 626.396C449.241 624.531 453.267 621.799 456.64 618.36L465.27 609.73L509.21 565.73L555.66 519.21L599.61 563.22ZM616.76 686.72C599.605 692.021 581.33 692.543 563.9 688.232C546.47 683.92 530.546 674.937 517.84 662.25L514.5 658.82L558.41 614.82L561.75 618.24C565.14 621.633 569.165 624.324 573.596 626.161C578.026 627.999 582.775 628.945 587.571 628.947C592.367 628.949 597.117 628.006 601.549 626.172C605.98 624.339 610.008 621.65 613.4 618.26C616.793 614.87 619.485 610.845 621.322 606.414C623.159 601.984 624.105 597.235 624.107 592.439C624.109 587.643 623.166 582.893 621.333 578.462C619.499 574.03 616.81 570.003 613.42 566.61L604.77 558L560.86 514L514.41 467.53L558.41 423.53L604.81 470L648.75 514L657.36 522.61C669.427 534.549 678.185 549.417 682.778 565.758C687.371 582.099 687.64 599.353 683.56 615.83C694.384 617.328 704.588 621.774 713.056 628.68C721.524 635.586 727.93 644.687 731.574 654.988C735.219 665.29 735.961 676.395 733.721 687.089C731.48 697.784 726.342 707.657 718.868 715.629C711.395 723.601 701.874 729.365 691.346 732.291C680.818 735.216 669.688 735.192 659.173 732.219C648.658 729.246 639.163 723.44 631.725 715.435C624.288 707.43 619.194 697.535 617 686.83L616.76 686.72ZM418.71 464.86L465.27 418.35L509.27 374.35L517.85 365.79C530.384 353.216 546.09 344.271 563.299 339.906C580.508 335.541 598.579 335.919 615.59 341C617.106 329.998 621.666 319.638 628.757 311.089C635.847 302.541 645.185 296.144 655.718 292.621C666.25 289.097 677.558 288.587 688.365 291.148C699.171 293.71 709.048 299.24 716.879 307.115C724.71 314.991 730.184 324.898 732.684 335.719C735.183 346.541 734.609 357.845 731.026 368.357C727.443 378.87 720.993 388.172 712.405 395.213C703.817 402.255 693.431 406.757 682.42 408.21C687.326 425.167 687.588 443.129 683.18 460.222C678.771 477.315 669.855 492.91 657.36 505.38L654 508.81L610 464.81L613.42 461.39C616.809 458 619.497 453.975 621.33 449.547C623.164 445.118 624.107 440.371 624.106 435.578C624.105 430.784 623.16 426.038 621.325 421.61C619.49 417.182 616.8 413.159 613.41 409.77C610.02 406.381 605.996 403.693 601.567 401.86C597.138 400.026 592.392 399.083 587.598 399.084C582.805 399.085 578.059 400.03 573.63 401.865C569.202 403.7 565.179 406.39 561.79 409.78L553.21 418.34L509.21 462.34L462.7 508.79L418.71 464.86ZM369.46 514L360.9 505.42C348.293 492.818 339.337 477.035 334.982 459.749C330.628 442.463 331.038 424.321 336.17 407.25C325.627 404.853 315.934 399.633 308.129 392.151C300.324 384.668 294.701 375.203 291.861 364.77C289.022 354.337 289.073 343.329 292.009 332.922C294.946 322.516 300.657 313.105 308.531 305.695C316.405 298.285 326.146 293.156 336.712 290.857C347.277 288.558 358.268 289.175 368.51 292.643C378.751 296.111 387.857 302.298 394.852 310.543C401.847 318.788 406.468 328.78 408.22 339.45C424.591 335.598 441.673 335.988 457.85 340.586C474.027 345.183 488.763 353.834 500.66 365.72L504.08 369.15L460.08 413.15L456.68 409.79C449.788 403.035 440.508 399.273 430.857 399.322C421.206 399.371 411.965 403.226 405.141 410.05C398.316 416.874 394.461 426.116 394.412 435.766C394.364 445.417 398.125 454.697 404.88 461.59L413.51 470.24L457.51 514.24L504 560.73L460.06 604.73L413.46 558.22L369.46 514.22V514Z" fill="white"/>
</g>
<defs>
<clipPath id="clip0_2_2565">
<rect width="1024" height="1024" fill="white"/>
</clipPath>
</defs>
</svg>
